X: 24000
T: Log Cabin, The
R: reel
M: 4/4
K: Dmajor
A,DDE FGAB|=cdDE FGA^c|(3ded cd BdAG|FADB, =C2 B,C|
A,DDE FGAB|=cdDE FGA^c|(3ded cd BdAG|1 FGEF D3 B,:|2 FGEF DEFA||
d2 fd Adfd|gefd edBc|d2 fd Adfd|=cAGE =CE (3EDE|
d2 fd Adfd|cdef g2 ag|fdec dBAG|FGEF D2 FA|
d2 fd Adfd|gefd edBc|d2 fd Adfd|=cAGE DEFA|
d2 fd Adfd|cdef g2 ag|fdec dBAG|FGEF D4||

